X:1
T:Élisabeth Jacquet de La Guerre (1665-1729) Menuet de la Suite en sol m 
C:de La Guerre
%%score { ( 1 4 ) | ( 2 3 ) }
L:1/8
M:3/4
K:F
V:1 treble nm="Piano" snm="Pno."
V:4 treble 
V:2 bass 
V:3 bass 
V:1
 Md2 PB3 A/B/ | c2 A2 d2 | PB2 cBAG | AGABcA | Md2 PB3 A/B/ | c2 A2 d2 | PB2 cBAG | PA6 :: MA2 B4 | %9
 PA3 G P^F2 | MG2 A2 B2 | G^FEF D2 | MA2 B4 | PA3 G P^F2 | MG2 cBAB | PG6 ::"^Double" dcMd_ede | %17
 cdcBcA | MBcBABG | AGABcA | dcMd_ede | cdcBcA | MBcBABG | PA6 | [Bd]6 | c6 | [GB]6 | [^FA]6 | %28
 [Bd]6 | c6 | [GB]6 | [^FA]6 | AGABcB | ABAGA^F | MGAG=FGE | G^FEF D2 | AGABcB | AG^FEFD | %38
 MG2 A2 P^F2 | [DG]6 | A4 B2 | A6 | MG6 | P^F4 G2 | A4 B2 | [^FA]6 | MG4 P^F2 | [DG]6 |] %48
V:2
 z2 z2 B,2 | A,4 ^F,2 | G,4 G,,2 | z2 ^F,4 | G,6 | A,,4 ^F,,2 | G,,4 G,,2 | z2 A,,2 D,2 :: %8
 ^F,2 x4 | =F,2 _E,2 D,2 | _E,4 C,2 | D,4 D,2 | ^F,,2 G,,4 | D,4 D,2 | _E,2 C,2 D,2 | G,6 :: %16
 z2 z2 B,2 | A,4 ^F,2 | G,4 G,,2 | z2 ^F,4 | G,6 | A,,4 ^F,,2 | G,,4 G,,2 | z2 A,,2 D,2 | %24
 G,^F,G,A,B,G, | A,B,A,G,A,^F, | G,A,G,^F,G,G,, | D,C,D,_E,D,C, | B,,C,B,,A,,B,,G,, | %29
 A,,B,,A,,G,,A,,^F,, | G,,A,,G,,^F,,G,,G,,, | z2 A,,2 D,2 | D,4 G,2 | F,4 D,2 | _E,4 C,2 | D,6 | %36
 ^F,,4 G,,2 | D,4 D,2 | _E,2 C,2 D,2 | G,B,A,G,^F,E, | D,E,^F,D,G,E, | =F,G,F,E,F,D, | %42
 _E,F,E,D,E,C, | D,D,C,B,,A,,G,, | ^F,,G,,A,,F,,G,,G,, | D,C,D,B,,C,D, | E,D,E,C,D,D,, | G,,4 z2 |] %48
V:3
 G,6 | x6 | x6 | D,4 C,2 | B,,2 G,,4 | x6 | x6 | D,,6 :: D,2 G,4 | x6 | x6 | x6 | x6 | x6 | x6 | %15
 z2 D,2 G,,2 :: G,6 | x6 | x6 | D,4 C,2 | B,,4 G,,2 | x6 | x6 | D,,6 | x6 | x6 | x6 | x6 | x6 | %29
 x6 | x6 | D,,6 | x6 | x6 | x6 | x6 | x6 | x6 | x6 | x6 | x6 | x6 | x6 | x6 | x6 | x6 | x6 | %47
 z2 D,,2 G,,,2 |] %48
V:4
 x6 | x6 | x6 | x6 | x6 | x6 | x6 | x6 :: x6 | x6 | x6 | x6 | x6 | x6 | x6 | x6 :: x6 | x6 | x6 | %19
 x6 | x6 | x6 | x6 | x6 | G6 | x6 | D6 | D6 | G6 | x6 | D6 | D6 | x6 | x6 | x6 | x6 | x6 | x6 | %38
 x6 | B,6 | [D^F]6 | x6 | x6 | x6 | [D^F]6 | D6 | x6 | B,6 |] %48

